X: 276
T: Barlow Knife  [1]
B: canberra pickers and fiddlers
B: tunes
M:4/4
L:1/8
Q: 1/4=100
K:G
V:1 
ef|g2 gg fgaf|g2 g2 d2 (g2|g2) bg f2 af|efge d2ef|
g2gg fgaf|g2g2d2(g2|g2) bg f2 af|efge d2 (3Bcd||
e2 d2 BABd|e2 dB G2 g2|efed BAGB|A2 G2 G2 (e2|e)fed BABd|e2 dB G2g2|
efed BAGB|A2 G2 G2 (A2||A2) Ad BA G2|A2 d2 G2 (A2|A2) Ad BAGB|
A2 G2 G2 (A2|A2) Ad BA G2|A2 d2 G2 (A2|A2) Ad BAGB|A2 G2 G2||
% abcbook-tune_id 63ae8f1c89c73438417e6f41
% abcbook-tune_composer_id 
% abcbook-link-0 https://www.youtube.com/watch?v=5jQo0LsGrQo
% abcbook-boost 0
% abcbook-difficulty 0
% abcbook-tags canberra pickers and fiddlers,old time tunes,steve ryan,© free
% abcbook-tablature 
% abcbook-transpose 
% abcbook-tuning GDAD
% abcbook-lastupdated 1675153942579
% abcbook-src-url https://tunebook.net/scrape/tunes.abc
% abcbook-soundfonts 
% abcbook-repeats 1


